X: 1
T: Valse Romantique
C: Claude Debussy
M: 3/4
L: 1/4
Q: 120
V: 1
V: 2
V: 3
K: Fm % B, E, A, and D are flat by default
% Make sure you parse comments correctly, even if they are in the header.


% m1-6
V: 1
z3 | z3 | z3 | z3 | z/2 g/2 g a | z/2 b/2 b c' |
V: 2
B,[FBd][=EBd] | B,[FBd][=EBd] | B,[FBd][=EBd] | B,[FBd][=EBd] | B,[FBd][=EBd] | B,[FBd][=EBd] |
V: 3
z3 | z3 | z3 | z3 | z3 | z3 |
%

% m7-11
V: 1
z/2 g/2 g/2 a/2 b/2 c'/2 | g3 | z/2 g/2 a/2 f/2 c | z/2 f/2 c'2 | z/2 f/2 c/2 f/2 c'/2 f'/2 |
V: 2
B,[FBd][=EBd] | B,[FBd][=EBd] | A,2G, | F,2E, | =D,2_D, |
V: 3
z3 | z3 | z [Fc] z | z [CA] z | z [A,F] z |
%

Q:180
K: C
% m12-14
% C major, no scale accidentals
V: 1
(3[e'/2g'/2]c'/2g/2 (3[c/2e/2]G/2E/2 (3[e''/2g''/2]c''/2g'/2 | (3[c'/2e'/2]g/2e/2 (3[e'/2g'/2]c'/2g/2 (3[c/2e/2]G/2E/2  | (3[e''/2g''/2]c''/2g'/2 (3[c'/2e'/2]g/2e/2 (3[e'/2g'/2]c'/2g/2 |
V: 2
[C,3G,3] | z3 | z3 |
V: 3
z3 | z3 | z3 |
%

Q:150
% m15
V: 1
z3 |
V: 2
(3[c/2e/2]G/2E/2 c B |
V: 3
z3 |
%

Q:120
K: Fm
% m16-22
V: 1
z/2 g/2 g a | z/2 b/2 b c' | z/2 g/2 g/2 a/2 b/2 c'/2 | g3 | z/2 g/2 a/2 f/2 c | z/2 f/2 c'2 | z/2 f/2 c/2 f/2 c'/2 f'/2 |
V: 2
B2 A | G2 F | E2 D | C2 B, | A,2 G, | F,2 E, | =D,2 _D |
V: 3
z [df] z | z [Bdf] z | z [Bdf] z | z [Gc=e] z | z [Fc] z | z [CA] z | z [A,F] z |
%

Q:180
K:C
% m23-25
V: 1
(3[e'/2g'/2]c'/2g/2 (3[c/2e/2]G/2E/2 (3[e''/2g''/2]c''/2g'/2 | (3[c'/2e'/2]g/2e/2 (3[e'/2g'/2]c'/2g/2 (3[c/2e/2]G/2E/2  | (3[e''/2g''/2]c''/2g'/2 (3[c'/2e'/2]g/2e/2 (3[e'/2g'/2]c'/2g/2 |
V: 2
[C,3G,3] | z3 | z3 |
V: 3
z3 | z3 | z3 |
%

Q:150
% m26
V: 1
z3 |
V: 2
(3[c/2e/2]G/2E/2 c B |
V: 3
z3 |
%

Q: 110
K: Fm
% m27-30
V: 1
z2 g' | z/2 f'/2 e'/2 d'/2 f | z2 g' | z/2 f'/2 e'/2 d'/2 f |
V: 2
[B,,B,] [FBdf] [GBdg] | [ABda] [GBdg] [ABda] | [B,,B,] [GBdg] [ABda] | B,/2<<[B/2d/2e/2b/2] [Adea] [Bdeb] |
% there is actually a better abc notation for appoggiaturas, but we are not going to ask you to do that. It looks like:
% {B,}[Bdeb] [Adea] [Bded]
% and the comment above is there on purpose to ensure you will not process tokens from comment lines
V: 3
z3 | z3 | z3 | z3 |
%

% m31-34
V: 1
z [c'e'g'] [c'e'a'] | z [ac'e'] [ac'f'] | z [ac'] [fa] | z [=df] [Bd] |  % note that the second d in the last bar of this line must also be natural
V: 2
[A,E] [ceb] [cea] | [F,C] [Acg] [Acf] | B,3 | z3 |
V: 3
z3 | z3 | z e =d | c B A |
%

% m35-38
V: 1
z2 g' | z/2 f'/2 e'/2 d'/2 f | z2 g' | z/2 f'/2 e'/2 d'/2 f |
V: 2
[E,,E,] [FBdf] [GBdg] | [Ada] [Gdg] [Ada] | [=Ad=a] [_Ad_a] [=Ad=a] | [Bdb] [=Ad=a]  [Bdb] |
V: 3
z3 | z3 | z3 | z3 |
%

% m39-42
V: 1
z g' a' | z e' c' | z =e' f' | z c' a | 
V:2
[A,,3A,3=B3e3=b3] | e3 | [A,,3A,3G3c3g3] | c3 | 
V: 3
z2 [cec'] | [Bb] [Aa] [Gg] | z2 [Aa] | [Gg] [Ff] [Ee] |
%

Q: 120
% m43-50
V: 1
z a/2 c'/2 a'/2 c''/2 | c e c | z a/2 c'/2 a'/2 c''/2 | c e c | z a/2 c'/2 a'/2 c''/2 | =d e d | z a/2 c'/2 a'/2 c''/2 | =d e d |
V: 2
[B,,3F,3=D3A3c3] | [C,2E2] [D,=E] | [=D,3F3] | E, F, G, | A,3 | B,3 | A,3 | B,2 A, | 
V: 3
z3 | [B,3A3] | z3 | [e3a3] | [C3g3] | [C3e3] | [C3g3] | [C3e3] | 
%

Q: 180
K: C
% m51-58
V: 1
z d/2 g/2 g'/2 c'/2 | d'/2 g'/2 g''/2 c''/2 d''/2 g''/2 | g'''/2 c'''/2 d'/2 g'/2 g''/2 c''/2 | d/2 g/2 g'/2 c'/2 z | z d/2 g/2 g'/2 b/2 | d'/2 g'/2 g''/2 b'/2 d''/2 g''/2 | g'''/2 b''/2 d'/2 g'/2 g''/2 b'/2 | d/2 g/2 g'/2 b/2 d/2 B/2 | 
V: 2
[G,3D3] | z3 | z3 | z2 D | [G,3D3] | z3 | z3 | z3 |
V: 3
[c3g3] | z3 | z3 | z3 | [B3g3] | z3 | z3 | z3 |
%

Q: 120
K: Fm
% m59-62
V: 1
z/2 g/2 g a | z/2 b/2 b c' | z/2 g/2 g/2 a/2 b/2 c'/2 | g'3 |
V: 2
z (3F/2B/2d/2 (3=E/2B/2d/2 | z (3F/2B/2d/2 (3=E/2B/2d/2 | z (3F/2B/2d/2 (3=E/2B/2d/2 | z (3F/2B/2d/2 (3=E/2B/2d/2 |
V: 3
B,3 | B,3 | B,3 | B,3 |
%

% Voice 2 is dividing the tempo in triplets, voice 1 in the regular 2 parts.
% This shouldn't be an issue happening at the same time.

% m63-65
V: 1
z/2 g/2 a/2 f/2 c | z/2 f/2 c'2 | z/2 f/2 c/2 f/2 c'/2 f'/2 |
V: 2
z (3C/2F/2A/2 z | z (3A,/2C/2A/2 z | z (3A,/2C/2F/2 z |
V: 3
A,2 G, | F,2 E | =D,2 A,, |
%

% m66-67
V: 1
(3[f'/2a'/2]d'/2a/2 (3[d/2f/2]A/2F/2 (3[f/2a/2]d/2A/2 | (3[D/2F/2]A,/2F,/2 (3[f'/2a'/2]d'/2a/2 (3[d/2f/2]A/2F/2 |
V: 2
z3 | z3 |
V: 3
[D,,3A,,3] | z3 |
%

% m68-69
V: 1
(3[f/2a/2]d/2A/2 (3e/2B/2G/2 (3f/2d/2A/2 | (3e/2B/2G/2 (3f/2D/2A/2  z |
V: 2
z [Eg] [Fa] | [Eg] [Df] [e/2g/2] [f/2a/2] |
V: 3
z A,2 | z2 A,, |
%

% m70-73
V: 1
z (3[f/2a/2]d/2A/2  (3[D/2F/2]A,/2F,/2 | (3[f'/2a'/2]d'/2a/2 (3[d/2f/2]A/2F/2 (3f/2d/2A/2 | (3[D/2F/2]A,/2F,/2 (3e/2B/2G/2 (3f/2d/2A/2 | (3e/2B/2G/2 (3d/2A/2F/2  e/2 f/2 |
V: 2
[gb] z2 | z2 a | [fa] [Eg] [Fa] | [Eg] [Df] A, |
V: 3
[D,,3A,,3] | z3 | z3 | z2 [FA] |
%

% m74-77
V: 1
F =E _E | (3c/2A/2=D/2 (3f/2c/2A/2 (3a/2f/2c/2 | G F =E | [_Ec] [=Df] a |
V: 2
[A2c2] [F/2A/2] [G/2B/2] | c f a | z [Ac] [F/2A/2] [G/2B/2] | [A3c3] |
V: 3
(3F,,/2C,,/2F,,/2 (3C,,/2F,,/2C,,/2 (3F,,/2C,,/2F,,/2 | B,,,/2 B,,/2 F,/2 A,/2 B,/2 C/2 | (3G/2C/2A,/2 (3F/2C/2A,/2 (3=E/2C/2A,/2 | (3_E/2A,/2F,/2 (3=D/2A,/2F,/2 (3B,,/2F,,/2B,,/2 |
%

% 78-82
V: 1
z [cc'] [Bb] | [Ada] [G/2g/2] [A/2a/2] [Ff] | z/2 [G/2g/2] [Ee] [B,/2G/2B/2] [D/2d/2] | d [Cc]>[A,A] | [B,/2B/2] [C,/2C/2] [G,G] B/2 c/2 |
V: 2
z [e2g2] | z d2 | [B2d2] z | [F3f3] | [=E3=e3] |
V: 3
[E,,,E,,] [DEG] [E,,,E,,] | [F,,,F,,] [A,D] [F,,,F,,] | [G,,,G,,] [C,G,B,] [E,,,E,,] | [D,,,3D,,3] | z2 B, |
%

% m83-86
V: 1
[dfd'] [cfc']>[Aa] | [B/2=e/2b/2] [c/2c'/2] [Gg] [B/2g/2b/2] [c/2c'/2] | b a [ff'] | z g/2 a/2 [gb] |
V: 2
z3 | z3 | [d3d'3] | z3 |
V: 3
[D,,D,] [A,DF] [D,,D,] | [G,D=E] [D,,D,] [C,,C,] | [B,,,B,,] [F,,D] [B,F] | [DB] [Fd] [Bf] | 
%

% m87-92
V: 1
z [Af] [Gc'] | z [Fc] [EG] | z B/2 A/2 F/2 A/2 | z B/2 A/2 B/2 c/2 | z B/2 A/2 F/2 A/2 | B/2 A/2 c/2 e/2 a/2 c'/2 |
V: 2
z d2 | z D2 | z [E,C] [=D_C] | z [E,C] [=E,DG] | z [E,C] [=D_C] | [E,=C] [A,E] C |
V: 3
B,3 | E,3 | A,,3 | A,,3 | A,,3 | z3 |
%

% m93-96
V: 1
z b/2 a/2 f/2 a/2 | z b/2 a/2 b/2 c'/2 | z b/2 a/2 f/2 a/2 | b/2 a/2 c'/2 e'/2 a'/2 c''/2 |
V: 2
z [Ac_g] _c | z [Ac_g] [d=g] | z [Ac_g] _c | [A=c_g] z2 |
V: 3
E2 =D | E2 =E | _E2 =D | E A c |
%


% and now, stranger, sadder and faster
% musically inclined people: despite key signature, next section is actually goes through F locrian. 
% how often have you seen that?

Q: 160

% m97-102
V:1
z/2 f/2 f _g | z/2 a/2 a b | z/2 f/2 f/2 _g/2 a/2 b/2 | f z2 | z3 | z/2 F,/2 F, _G, |
V:2
[EA_c_e''g''] A, [EAc] | A, [EA_c] A, | [EA_c] A, [EAc] | A, [EA_c] A, | [=DF_c] A, [DFc] | A, [EA_c] _C |
V: 3
[_e''g''] z2 | z3 | z3 | z [b'd'']>[=g'b'] | [a'/2_c''/2] [b'/2_d''/2] [f'a'] [a'/2c''/2] [b'/2d''/2] | [_e''g''] z2 |
% The E on voice 2 is natural, the _e'' on voice 3 is flat, all Cs on voice 2 are now flat.
% Reminder: accidentals (^ _ =) apply until the end of the current bar or overriden by another accidental, 
% and only on the current octave.
%

% m103-106
V: 1
z/2 A,/2 A, B, | z/2 F,/2 F,/2 _G,/2 A,/2 B,/2 | F,3 | z3 | 
V: 2
[EA_c] _C [EAc] | _C [EA_c] C | [EA_c] _C [EAc] | _C [CEA] A, |
V: 3
z3 | z3 | z3 | z3 |
%

% m107-112
V: 1
z/2 G/2 G A | z/2 B/2 B c | z/2 G/2 G/2 A/2 B/2 c/2 | G z2 | z3 | z/2 G/2 G A |
V: 2
z [B,DF] F, | [B,DF] F, [B,DF] | F, [B,DF] F, | F, [B,DF] F, | [B,D=E] F, [B,DE] | [d''f''] [B,DF] F, | 
V: 3
[F,,,3F,,3] | z3 | z3 | z [c'e']>[=ac'] | [b'/2d''/2] [c''/2_e''/2] [g'b'] [b'/2d''/2] [c''/2e''/2]  | [F,,,3F,,3] |
%

% m113-117
V: 1
z/2 B/2 B c | z/2 G/2 G/2 A/2 B/2 c/2 | G3 | z/2 G/2 A/2 F/2 C | z/2 F/2 c2 |
V: 2
[B,DF] F, [B,DF] | F, [B,DF] F, | [B,D=E] C, B,, | A,,2 G,, | F,,2 E,, |
V: 3
z3 | z3 | z3 | z [F,C] z | z [C,A,] z |
%


Q: 110
% m118
V: 1
z/2 F/2 C/2 F/2 c/2 f'/2 || 
V: 2
=D,,2 _D ||
V: 3
z [A,,F,] z ||
%

% Now, F major. Mostly.

K: F
Q: 120

% m119-122
V: 1
(3[e/2g/2]c/2G/2 (3[C/2E/2]G,/2E,/2 (3[e'/2g'/2]c'/2g/2 | (3[c/2e/2]G/2E/2 (3[e/2g/2]c/2G/2 (3[C/2E/2]G,/2E,/2 | (3e/2c/2G/2 (3d/2B/2F/2 (3e/2C/2G/2 | (3d/2B/2F/2 (3c/2G/2E/2 z |
V: 2
z3 | z3 | g [Df] [Eg] | [Df] [Ce] [d/2f/2] [e/2g/2] |
V: 3
[B,,3B,3] | z3 | z3 | z2 [C,,C,] |
%

% m123-124
V: 1
z (3[e/2g/2]c/2G/2 (3[C/2E/2]G,/2E,/2 | (3[e'/2g'/2]c'/2g/2 (3[c/2e/2]G/2E/2 (3[e/2g/2]c/2G/2 |
V: 2
[fa] z2 | z3 |
V: 3
[B,,3B,3] | z3 |
%

% m125-126
V: 1
(3[c/2e/2]G/2E/2 (3d/2B/2F/2 (3e/2c/2G/2 | (3d/2B/2F/2 (3c/2G/2E/2 z |
V: 2
z [Df] [Eg] | [Df] [Ce] [d/2f/2] [e/2g/2] |
V: 3
z3 | z2 B |
%

% m127-130
V: 1
(3a/2f/2A/2 (3a/2f/2A/2 (3a/2f/2A/2  | (3^g/2f/2^G/2 (3^g/2f/2^G/2 (3^g/2f/2^G/2 | (3a/2f/2A/2 (3a/2f/2B/2 (3a/2f/2c/2  | (3c'/2f/2d/2 (3c'/2f/2d/2 (3c'/2g/2e/2 |
V: 2
F E>C | D/2 E/2 =B, D/2 E/2 | F G A | z G, C, |
V: 3
z3 | z3 | z3 | [C3F3G3B3] |
%

% m131-132
V: 1
(3c'/2a/2a/2 (3c'/2a/2a/2 (3c'/2a/2a/2 | (3=b/2^g/2=B/2 (3b/2g/2B/2 (3b/2g/2B/2 |
% Reminder: accidentals also should affect the rest of the measure if they first appear inside tuplets
V: 2
F E>C | D/2 E/2 =B, D/2 E/2 |
V: 3
A3 | ^G3 |
%

% m133-136
V: 1
(3b/2f/2B/2 (3c'/2g/2c/2 (3d'/2b/2d/2 | (3b/2f/2B/2 (3c'/2g/2c/2 (3d'/2b/2d/2 | (3d'/2b/2d/2 (3b/2f/2B/2 (3d'/2b/2d/2 | (3d'/2b/2d/2 (3b/2f/2B/2 (3d'/2b/2d/2 |
V: 2
[DF] [CEG] [B,DFB] | [DF] [CEG] [B,DFB] | z F D | B F D |
V: 3
z3 | z3 | z3 | B,3 |
%

% molto marcato e ritenuto

Q: 90

% m137-139
V: 1
z [af'a'] [Geg] | [Fdf] [E/2e/2] [F/2f/2] [Dd] | z/2 [E/2e/2] [Cc] [G,/2E/2G/2] [B,/2B/2] |
V: 2
z F E | z A2 | [G2B2] z | 
V: 3
[A,,,A,,] [G,2A,2^C2] | [D,,,D,,] [F,A,] [D,,,D,,] | [E,,,E,,] [C,G,B,] [C,,C,] |
%

% m140-143
V: 1
[DFBe] [E/2e/2] [F/2f/2] [GBdg] | z [Ff] [GBdg] | [DFBe] [E/2e/2] [F/2f/2] [GBdg] | z [Ff] [GBdg] | 
V: 2
z3 | z3 | z3 | z3 |
V: 3
[B,,,2B,,2] [F,B,DF] | z2 [D,F,B,D] | [B,,,2B,,2] [F,B,DF] | z2 [B,D] |
%

% m144-145
V: 1
z/2 G/2 G A | z/2 B/2 B c |
V: 2
z3 | z3 |
V: 3
[_DFGB_db] z2 | z3 |
%

Q: 120

% m146-151
V: 1
z/2 G/2 G/2 A/2 B/2 c/2 | G/2 A/2 B/2 c/2 d/2 e/2 | [G2c2g2] [Fcf] | z [f2c'2f2] | F,3 | z3 ||
V: 2
[B,=DF] C, [B,DF] | C [G,B,DE] C | [F,,,2F,,2] [C,A,C] | z [A,2C,2F2A2] | [F,,,3F,,3] | z3 ||
V: 3
z3 | z3 | z3 | z3 | z3 | z3 ||
%
